X:12885
T:Liebenswürdige Grasmücke. Schottisch  CFBb  (st07136) 
T:Hanny Christen. Bd.V  Basel II, Jura. S. 229  (st07136) orig. C,F,Bb
T: Tänze aus Lampenberg und Reigoldswil. S.220-229.
S:Überliefert durch Thommen, Karl Fluhbacher und Paul Suter
%P:ABCD
R:Schottisch
M:2/4
L:1/8
K:C %%MIDI gchordon
(c/d/) | "C"e2z(B/d/) | e2zc/d/ | e(f/e/) "G7"d(e/d/) | "C".c2z2 |:  [P:A] "C"Ge Bc | EAG2 | "G7"AGB,2 | 
"C"AG CE/F/ | Ge Bc | EAG2 | "F"AB/A/ "G7"G/B/e/d/ | "C"cc cz :: [P:B] [K:F] "F"c>f "Bb"ed | "F"c2 (c/=B/).c/.d/ | "C7"cB G^G | 
"F"Ac/B/ A>B | cf "Bb"ed | "F"c2 (c/=B/)c/d/ | "C7"cB AG | "F"FF Fz :: [P:C] [K:Bb] "G7"z(d ^cd) | ("Cm"e>d) cz | 
"F7"z(c =Bc) | "Bb"d>cB2 | z(B AB) | "F7"c>B Az | z(g fe) | "Bb"d>c Bz | "G7"z(d ^cd) | 
"Cm"e>d c z | "F7"z(c =Bc) | "Bb"d>cB2 | z(B AB) | "F7"c=B cd | eF d>c | "Bb"BB Bz :| [P:D] [K:F] 
|: "C7".c!>!G2B | "F".A!>!F2f | "C7"ed Bd | !>!"F"c3A/B/ | "C7".c!>!G2B | "F".A!>!F2G | "C7"A/G/^F/G/ A>G | "F"FF Fz :| 
%W:Parts: ABCD
%W:Anmerkung H.C.: 
%W:Anmerkung Hrsg,:
% st07136
% Sep 13, 2018

